docs/assets/icons/chrony.svg

<?xml version="1.0" encoding="UTF-8" standalone="no"?>
<svg
   id="mdi-web-clock"
   viewBox="0 0 24 24"
   version="1.1"
   sodipodi:docname="chrony.svg"
   inkscape:version="1.4.3 (0d15f75042, 2025-12-25)"
   xmlns:inkscape="http://www.inkscape.org/namespaces/inkscape"
   xmlns:sodipodi="http://sodipodi.sourceforge.net/DTD/sodipodi-0.dtd"
   xmlns="http://www.w3.org/2000/svg"
   xmlns:svg="http://www.w3.org/2000/svg">
  <defs
     id="defs1">
    <filter
       style="color-interpolation-filters:sRGB;"
       inkscape:label="Drop Shadow"
       id="filter7"
       x="-0.034285716"
       y="-0.034285716"
       width="1.092381"
       height="1.092381">
      <feFlood
         result="flood"
         in="SourceGraphic"
         flood-opacity="0.498039"
         flood-color="rgb(0,0,0)"
         id="feFlood6" />
      <feGaussianBlur
         result="blur"
         in="SourceGraphic"
         stdDeviation="0.300000"
         id="feGaussianBlur6" />
      <feOffset
         result="offset"
         in="blur"
         dx="0.500000"
         dy="0.500000"
         id="feOffset6" />
      <feComposite
         result="comp1"
         operator="in"
         in="flood"
         in2="offset"
         id="feComposite6" />
      <feComposite
         result="comp2"
         operator="over"
         in="SourceGraphic"
         in2="comp1"
         id="feComposite7" />
    </filter>
    <filter
       style="color-interpolation-filters:sRGB;"
       inkscape:label="Drop Shadow"
       id="filter9"
       x="-0.19200001"
       y="-0.12"
       width="1.5173333"
       height="1.3233333">
      <feFlood
         result="flood"
         in="SourceGraphic"
         flood-opacity="0.498039"
         flood-color="rgb(0,0,0)"
         id="feFlood7" />
      <feGaussianBlur
         result="blur"
         in="SourceGraphic"
         stdDeviation="0.300000"
         id="feGaussianBlur7" />
      <feOffset
         result="offset"
         in="blur"
         dx="0.500000"
         dy="0.500000"
         id="feOffset7" />
      <feComposite
         result="comp1"
         operator="in"
         in="flood"
         in2="offset"
         id="feComposite8" />
      <feComposite
         result="comp2"
         operator="over"
         in="SourceGraphic"
         in2="comp1"
         id="feComposite9" />
    </filter>
  </defs>
  <sodipodi:namedview
     id="namedview1"
     pagecolor="#505050"
     bordercolor="#ffffff"
     borderopacity="1"
     inkscape:showpageshadow="0"
     inkscape:pageopacity="0"
     inkscape:pagecheckerboard="1"
     inkscape:deskcolor="#505050"
     inkscape:zoom="32"
     inkscape:cx="10.265625"
     inkscape:cy="15.25"
     inkscape:window-width="2560"
     inkscape:window-height="1368"
     inkscape:window-x="0"
     inkscape:window-y="0"
     inkscape:window-maximized="1"
     inkscape:current-layer="mdi-web-clock" />
  <path
     d="m 15,12.5 v 4 l 3,2 0.75,-1.25 -2.25,-1.5 V 12.5 H 15"
     id="path1"
     style="display:inline;fill:#4cae4f;fill-opacity:1;stroke-width:0.04747762;stroke-dasharray:none;stroke:none;stroke-opacity:1;stroke-linejoin:round;stroke-linecap:round"
     sodipodi:nodetypes="ccccccc"
     transform="matrix(1.0531277,0,0,1.0531277,-1.2867535,-1.2867535)" />
  <path
     d="m 22.500199,11.87842 v -0.431061 c 0,-6.0790626 -4.973778,-11.05284127 -11.052841,-11.05284127 -6.1122212,0 -11.05284127,4.97377867 -11.05284127,11.05284127 0,6.079063 4.97377867,11.052841 11.05284127,11.052841 0.143687,0 0.265268,0 0.408955,-0.03316 1.171601,0.718434 2.542153,1.138442 4.012182,1.138442 4.266396,0 7.736988,-3.470592 7.736988,-7.736988 0,-1.458976 -0.420008,-2.829528 -1.105284,-3.990076 M 20.024363,9.358372 C 19.958043,9.314161 19.902781,9.281003 19.836464,9.2367907 h 0.165792 c 0.01105,0.033159 0.01105,0.077369 0.02211,0.1215813 M 19.095924,7.0262225 H 15.835336 C 15.481645,5.6446174 14.973214,4.3182764 14.310043,3.091411 c 2.033723,0.6963291 3.724808,2.1000399 4.785881,3.9348115 m -7.648566,-4.387978 c 0.917385,1.326341 1.657926,2.8074217 2.111092,4.387978 H 9.3362653 C 9.7894318,5.4456662 10.529972,3.9645855 11.447358,2.6382445 M 8.8609932,9.2367907 h 3.0395308 c -1.381605,0.8289633 -2.4979417,2.0779333 -3.1390064,3.5811203 -0.044211,-0.453167 -0.07737,-0.906333 -0.07737,-1.370552 0,-0.751593 0.066317,-1.4921336 0.1768455,-2.2105683 M 8.5736193,3.091411 C 7.9104488,4.3182764 7.4130709,5.6446174 7.0262215,7.0262225 H 3.7987919 C 4.8488117,5.1914509 6.5509494,3.7766871 8.5736193,3.091411 M 2.8924589,13.657927 C 2.7156135,12.950545 2.6050851,12.210005 2.6050851,11.447359 c 0,-0.762646 0.1105284,-1.5031864 0.2873738,-2.2105683 h 3.7358603 c -0.088423,0.7294875 -0.1547398,1.4589753 -0.1547398,2.2105683 0,0.751593 0.066317,1.481081 0.1547398,2.210568 H 2.8924589 m 0.906333,2.210569 h 3.2274296 c 0.3868494,1.381604 0.8842273,2.707945 1.5473978,3.93481 -2.0226699,-0.696329 -3.7248076,-2.111092 -4.7748274,-3.93481 m 12.0697031,5.526419 c -3.050585,0 -5.526421,-2.475835 -5.526421,-5.526419 0,-3.050585 2.475836,-5.526421 5.526421,-5.526421 3.050584,0 5.526419,2.475836 5.526419,5.526421 0,3.050584 -2.475835,5.526419 -5.526419,5.526419 z"
     id="path2"
     sodipodi:nodetypes="csssscssccccccccccccccccsccccccsccsccccccsssss"
     style="display:inline;fill:#0091eb;fill-opacity:1;stroke:#4cae4f;stroke-width:0.629715;stroke-linecap:round;stroke-linejoin:round;stroke-dasharray:none;stroke-opacity:1" />
</svg>

<?xml version="1.0" encoding="UTF-8"?>
<svg version="1.1" viewBox="0 0 24 24" xmlns="http://www.w3.org/2000/svg"><path transform="matrix(1.0531 0 0 1.0531 -1.2868 -1.2868)" d="m15 12.5v4l3 2 .75-1.25-2.25-1.5v-3.25h-1.5" fill="#4cae4f"/><path d="m22.5 11.878v-.43106c0-6.0791-4.9738-11.053-11.053-11.053-6.1122 0-11.053 4.9738-11.053 11.053 0 6.0791 4.9738 11.053 11.053 11.053.14369 0 .26527 0 .40896-.03316 1.1716.71843 2.5422 1.1384 4.0122 1.1384 4.2664 0 7.737-3.4706 7.737-7.737 0-1.459-.42001-2.8295-1.1053-3.9901m-2.4758-2.52c-.06632-.044211-.12158-.077369-.1879-.12158h.16579c.01105.033159.01105.077369.02211.12158m-.92844-2.3321h-3.2606c-.35369-1.3816-.86212-2.7079-1.5253-3.9348 2.0337.69633 3.7248 2.1 4.7859 3.9348m-7.6486-4.388c.91738 1.3263 1.6579 2.8074 2.1111 4.388h-4.2222c.45317-1.5806 1.1937-3.0616 2.1111-4.388m-2.5864 6.5985h3.0395c-1.3816.82896-2.4979 2.0779-3.139 3.5811-.044211-.45317-.07737-.90633-.07737-1.3706 0-.75159.066317-1.4921.17685-2.2106m-.28737-6.1454c-.66317 1.2269-1.1605 2.5532-1.5474 3.9348h-3.2274c1.05-1.8348 2.7522-3.2495 4.7748-3.9348m-5.6812 10.567c-.17685-.70738-.28737-1.4479-.28737-2.2106s.11053-1.5032.28737-2.2106h3.7359c-.088423.72949-.15474 1.459-.15474 2.2106s.066317 1.4811.15474 2.2106h-3.7359m.90633 2.2106h3.2274c.38685 1.3816.88423 2.7079 1.5474 3.9348-2.0227-.69633-3.7248-2.1111-4.7748-3.9348m12.07 5.5264c-3.0506 0-5.5264-2.4758-5.5264-5.5264 0-3.0506 2.4758-5.5264 5.5264-5.5264 3.0506 0 5.5264 2.4758 5.5264 5.5264 0 3.0506-2.4758 5.5264-5.5264 5.5264z" fill="#0091eb" stroke="#4cae4f" stroke-linecap="round" stroke-linejoin="round" stroke-width=".5"/></svg>
